localPackages/DesignSystem/Sources/DesignSystem/Resources/Assets.xcassets/IconSet/ic-house.imageset/ic-house.svg

<svg width="24" height="24" viewBox="0 0 24 24" fill="none" xmlns="http://www.w3.org/2000/svg">
<g id="ic-house">
<path id="Icon" fill-rule="evenodd" clip-rule="evenodd" d="M19.5 19.4993V9.24561L12 2.99561L4.5 9.24561V19.4993H9V14.5493C9 13.5552 9.80589 12.7493 10.8 12.7493H13.2C14.1941 12.7493 15 13.5552 15 14.5493V19.4993L19.5 19.4993ZM3.53972 8.09327C3.19773 8.37827 3 8.80044 3 9.2456V19.4993C3 20.3278 3.67157 20.9993 4.5 20.9993H10.5V14.5493C10.5 14.3837 10.6343 14.2493 10.8 14.2493H13.2C13.3657 14.2493 13.5 14.3837 13.5 14.5493V20.9993H19.5C20.3284 20.9993 21 20.3278 21 19.4993V9.24561C21 8.80044 20.8023 8.37827 20.4603 8.09328L12.9603 1.84327C12.404 1.37972 11.596 1.37972 11.0397 1.84327L3.53972 8.09327Z" fill="#0F0F0F"/>
</g>
</svg>

<svg xmlns="http://www.w3.org/2000/svg" width="24" height="24" viewBox="0 0 24 24">
  <g class="ic-house">
    <path fill-rule="evenodd" d="M19.5 19.5V9.246L12 2.996l-7.5 6.25V19.5H9v-4.95a1.8 1.8 0 0 1 1.8-1.8h2.4a1.8 1.8 0 0 1 1.8 1.8v4.95h4.5ZM3.54 8.094A1.5 1.5 0 0 0 3 9.246V19.5A1.5 1.5 0 0 0 4.5 21h6v-6.45a.3.3 0 0 1 .3-.3h2.4a.3.3 0 0 1 .3.3V21h6a1.5 1.5 0 0 0 1.5-1.5V9.246a1.5 1.5 0 0 0-.54-1.152l-7.5-6.25a1.5 1.5 0 0 0-1.92 0l-7.5 6.25Z" class="Icon"/>
  </g>
</svg>
